img/city.svg

<svg width="12" height="15" viewBox="0 0 12 15" fill="none" xmlns="http://www.w3.org/2000/svg">
<path fill-rule="evenodd" clip-rule="evenodd" d="M6.00065 4.66732C5.26427 4.66732 4.66732 5.26427 4.66732 6.00065C4.66732 6.73703 5.26427 7.33398 6.00065 7.33398C6.73703 7.33398 7.33398 6.73703 7.33398 6.00065C7.33398 5.26427 6.73703 4.66732 6.00065 4.66732ZM3.33398 6.00065C3.33398 4.52789 4.52789 3.33398 6.00065 3.33398C7.47341 3.33398 8.66732 4.52789 8.66732 6.00065C8.66732 7.47341 7.47341 8.66732 6.00065 8.66732C4.52789 8.66732 3.33398 7.47341 3.33398 6.00065Z" fill="#787A80"/>
<path fill-rule="evenodd" clip-rule="evenodd" d="M6.00065 1.66732C3.58762 1.66732 1.66732 3.55802 1.66732 5.84681C1.66732 7.71268 2.78866 9.5972 4.01441 11.0795C4.61615 11.8071 5.2196 12.4099 5.67296 12.8307C5.79424 12.9433 5.90446 13.0426 6.00065 13.1274C6.09684 13.0426 6.20706 12.9433 6.32834 12.8307C6.78171 12.4099 7.38515 11.8071 7.98689 11.0795C9.21264 9.5972 10.334 7.71268 10.334 5.84681C10.334 3.55802 8.41368 1.66732 6.00065 1.66732ZM6.00065 14.0007C5.5881 14.5243 5.58795 14.5242 5.58778 14.5241L5.58612 14.5228L5.58232 14.5198L5.56941 14.5095C5.55846 14.5007 5.54291 14.4881 5.52305 14.4719C5.48334 14.4395 5.42638 14.3925 5.35463 14.3316C5.2112 14.21 5.00834 14.033 4.76584 13.8079C4.28171 13.3585 3.63515 12.7131 2.98689 11.9292C1.71264 10.3883 0.333984 8.19585 0.333984 5.84681C0.333984 2.78267 2.89083 0.333984 6.00065 0.333984C9.11047 0.333984 11.6673 2.78267 11.6673 5.84681C11.6673 8.19585 10.2887 10.3883 9.01441 11.9292C8.36615 12.7131 7.7196 13.3585 7.23546 13.8079C6.99296 14.033 6.7901 14.21 6.64667 14.3316C6.57492 14.3925 6.51796 14.4395 6.47825 14.4719C6.45839 14.4881 6.44284 14.5007 6.4319 14.5095L6.41898 14.5198L6.41518 14.5228L6.41396 14.5237C6.41379 14.5239 6.4132 14.5243 6.00065 14.0007ZM6.00065 14.0007L6.4132 14.5243C6.17121 14.715 5.82977 14.7147 5.58778 14.5241L6.00065 14.0007Z" fill="#787A80"/>
</svg>

<svg width="12" height="15" fill="none" xmlns="http://www.w3.org/2000/svg"><path fill-rule="evenodd" clip-rule="evenodd" d="M6 4.667a1.333 1.333 0 100 2.667 1.333 1.333 0 000-2.667zM3.335 6.001a2.667 2.667 0 115.333 0 2.667 2.667 0 01-5.333 0z" fill="#787A80"/><path fill-rule="evenodd" clip-rule="evenodd" d="M6 1.667c-2.412 0-4.333 1.891-4.333 4.18 0 1.866 1.122 3.75 2.347 5.232a18.612 18.612 0 001.987 2.048 18.61 18.61 0 001.986-2.048c1.226-1.482 2.347-3.366 2.347-5.232 0-2.289-1.92-4.18-4.333-4.18zm0 12.334l-.412.523-.002-.001-.004-.003-.013-.01a8.622 8.622 0 01-.214-.178 19.944 19.944 0 01-2.368-2.402C1.713 10.387.334 8.195.334 5.846.334 2.783 2.891.334 6.001.334s5.666 2.449 5.666 5.513c0 2.349-1.378 4.541-2.653 6.082a19.942 19.942 0 01-2.367 2.403 11.273 11.273 0 01-.215.177l-.013.01-.004.004h-.001l-.413-.522zm0 0l.413.523a.667.667 0 01-.825 0L6 14.001z" fill="#787A80"/></svg>
